images/logo.svg

<svg width="161" height="26" viewBox="0 0 161 26" fill="none" xmlns="http://www.w3.org/2000/svg">
<mask id="path-1-inside-1" fill="white">
<path fill-rule="evenodd" clip-rule="evenodd" d="M7.15845 19.9454C4.41076 19.9454 2.53349 17.6284 2.53349 14.6134C2.53349 11.5661 4.46124 9.23707 7.20347 9.23707C8.41223 9.23707 9.68648 9.68812 10.6633 10.4385L11.7629 8.72024C10.4887 7.62618 8.70419 7.0221 7.01247 7.0221C3.02464 7.0221 0 10.3177 0 14.6698C0 18.9386 2.92914 22.1912 6.92515 22.1912C8.63052 22.1912 10.5269 21.5925 11.782 20.5173L10.6633 18.7547C9.73287 19.4621 8.41223 19.9454 7.15708 19.9454H7.15845ZM25.6719 11.8131C25.6719 9.15652 23.8751 7.22346 20.785 7.22346H15.8626V21.9765H18.3184V16.4458H20.358L23.313 21.9818H26.2217L22.8656 16.0887C24.6323 15.4081 25.6733 13.8241 25.6733 11.8131H25.6719ZM34.0623 7.22346L29.0826 21.9711H31.6448L32.8017 18.2661H38.0979L39.2685 21.9711H41.9643L36.9164 7.22615H34.0514L34.0623 7.22346ZM55.082 9.04913V7.23286H45.199V9.37802H51.9455L44.9548 20.1951V21.9832H55.187V19.8125H48.0654L55.1052 9.05316L55.082 9.04913ZM64.5843 13.4025L61.1735 7.23152H58.3222L63.2882 15.8403V21.9751H65.7576V15.8269L70.8205 7.22346H68.1519L64.5856 13.3985L64.5843 13.4025ZM81.7335 14.1731C82.8112 13.5824 83.4252 12.5125 83.4252 11.0587C83.4252 8.64238 81.7471 7.23286 78.9503 7.23286H74.3117V21.9791H79.7279C82.4702 21.9791 84.2983 20.2474 84.2983 17.8043C84.2983 15.9357 83.2069 14.6053 81.7062 14.1731H81.7335ZM92.7719 7.23286L87.7923 21.9791H90.3517L91.5113 18.2741H96.8048L97.9781 21.9791H100.679L95.6411 7.23286H92.7856H92.7719ZM112.532 14.1731C113.613 13.5824 114.234 12.5125 114.234 11.0587C114.234 8.64238 112.569 7.23286 109.759 7.23286H105.12V21.9791H110.55C113.292 21.9791 115.134 20.2474 115.134 17.8043C115.134 15.9357 114.043 14.6053 112.556 14.1731H112.532ZM124.17 13.4025L120.773 7.23286H117.908L122.874 15.8417V21.9805H125.35V15.8283L130.398 7.23286H127.737L124.163 13.4039L124.17 13.4025ZM107.577 9.39547H109.46C110.838 9.39547 111.775 9.94854 111.775 11.3044C111.775 12.7099 110.807 13.3717 109.579 13.3717H107.573V9.39547H107.577ZM110.19 19.8045H107.575V15.4416H110.013C111.577 15.4416 112.605 16.1397 112.605 17.6298C112.605 19.1198 111.577 19.8045 110.187 19.8045H110.19ZM92.158 16.184L94.1499 9.83981L96.169 16.1759H92.158V16.184ZM76.777 9.39547H78.6597C80.0376 9.39547 80.9735 9.94854 80.9735 11.3044C80.9735 12.7099 80.0049 13.3717 78.7825 13.3717H76.777V9.39547ZM79.3896 19.8045H76.7838V15.4416H79.2259C80.7948 15.4416 81.818 16.1397 81.818 17.6298C81.818 19.1198 80.7948 19.8045 79.4032 19.8045H79.3896ZM33.4538 16.184L35.4457 9.83981L37.4649 16.1759H33.4538V16.184ZM20.4644 14.2644H18.3225V9.40487H20.4644C22.1111 9.40487 23.1793 10.2278 23.1793 11.848C23.1793 13.3958 22.2107 14.2617 20.4644 14.2617V14.2644ZM152.794 3.69161C151.791 3.356 151.397 2.63111 150.827 1.83909C150.213 0.988615 149.346 0.346132 148.346 0C148.818 1.50349 147.915 3.1278 146.391 3.57079C143.692 4.28523 141.346 5.9351 139.784 8.2167C138.223 10.4983 137.552 13.258 137.894 15.9879C138.237 18.7177 139.57 21.234 141.649 23.0734C143.727 24.9127 146.411 25.9515 149.206 25.9983C152.001 26.0452 154.719 25.0971 156.86 23.3284C159.001 21.5598 160.421 19.0898 160.857 16.373C161.294 13.6562 160.719 10.8755 159.238 8.54293C157.756 6.21031 155.469 4.48272 152.795 3.67818L152.794 3.69161ZM149.413 21.9899C148.029 21.9899 146.702 21.4489 145.723 20.486C144.745 19.523 144.195 18.217 144.195 16.8552C144.195 15.4934 144.745 14.1874 145.723 13.2244C146.702 12.2615 148.029 11.7205 149.413 11.7205C150.797 11.7205 152.125 12.2615 153.103 13.2244C154.082 14.1874 154.632 15.4934 154.632 16.8552C154.632 18.217 154.082 19.523 153.103 20.486C152.125 21.4489 150.797 21.9899 149.413 21.9899Z"/>
</mask>
<path fill-rule="evenodd" clip-rule="evenodd" d="M7.15845 19.9454C4.41076 19.9454 2.53349 17.6284 2.53349 14.6134C2.53349 11.5661 4.46124 9.23707 7.20347 9.23707C8.41223 9.23707 9.68648 9.68812 10.6633 10.4385L11.7629 8.72024C10.4887 7.62618 8.70419 7.0221 7.01247 7.0221C3.02464 7.0221 0 10.3177 0 14.6698C0 18.9386 2.92914 22.1912 6.92515 22.1912C8.63052 22.1912 10.5269 21.5925 11.782 20.5173L10.6633 18.7547C9.73287 19.4621 8.41223 19.9454 7.15708 19.9454H7.15845ZM25.6719 11.8131C25.6719 9.15652 23.8751 7.22346 20.785 7.22346H15.8626V21.9765H18.3184V16.4458H20.358L23.313 21.9818H26.2217L22.8656 16.0887C24.6323 15.4081 25.6733 13.8241 25.6733 11.8131H25.6719ZM34.0623 7.22346L29.0826 21.9711H31.6448L32.8017 18.2661H38.0979L39.2685 21.9711H41.9643L36.9164 7.22615H34.0514L34.0623 7.22346ZM55.082 9.04913V7.23286H45.199V9.37802H51.9455L44.9548 20.1951V21.9832H55.187V19.8125H48.0654L55.1052 9.05316L55.082 9.04913ZM64.5843 13.4025L61.1735 7.23152H58.3222L63.2882 15.8403V21.9751H65.7576V15.8269L70.8205 7.22346H68.1519L64.5856 13.3985L64.5843 13.4025ZM81.7335 14.1731C82.8112 13.5824 83.4252 12.5125 83.4252 11.0587C83.4252 8.64238 81.7471 7.23286 78.9503 7.23286H74.3117V21.9791H79.7279C82.4702 21.9791 84.2983 20.2474 84.2983 17.8043C84.2983 15.9357 83.2069 14.6053 81.7062 14.1731H81.7335ZM92.7719 7.23286L87.7923 21.9791H90.3517L91.5113 18.2741H96.8048L97.9781 21.9791H100.679L95.6411 7.23286H92.7856H92.7719ZM112.532 14.1731C113.613 13.5824 114.234 12.5125 114.234 11.0587C114.234 8.64238 112.569 7.23286 109.759 7.23286H105.12V21.9791H110.55C113.292 21.9791 115.134 20.2474 115.134 17.8043C115.134 15.9357 114.043 14.6053 112.556 14.1731H112.532ZM124.17 13.4025L120.773 7.23286H117.908L122.874 15.8417V21.9805H125.35V15.8283L130.398 7.23286H127.737L124.163 13.4039L124.17 13.4025ZM107.577 9.39547H109.46C110.838 9.39547 111.775 9.94854 111.775 11.3044C111.775 12.7099 110.807 13.3717 109.579 13.3717H107.573V9.39547H107.577ZM110.19 19.8045H107.575V15.4416H110.013C111.577 15.4416 112.605 16.1397 112.605 17.6298C112.605 19.1198 111.577 19.8045 110.187 19.8045H110.19ZM92.158 16.184L94.1499 9.83981L96.169 16.1759H92.158V16.184ZM76.777 9.39547H78.6597C80.0376 9.39547 80.9735 9.94854 80.9735 11.3044C80.9735 12.7099 80.0049 13.3717 78.7825 13.3717H76.777V9.39547ZM79.3896 19.8045H76.7838V15.4416H79.2259C80.7948 15.4416 81.818 16.1397 81.818 17.6298C81.818 19.1198 80.7948 19.8045 79.4032 19.8045H79.3896ZM33.4538 16.184L35.4457 9.83981L37.4649 16.1759H33.4538V16.184ZM20.4644 14.2644H18.3225V9.40487H20.4644C22.1111 9.40487 23.1793 10.2278 23.1793 11.848C23.1793 13.3958 22.2107 14.2617 20.4644 14.2617V14.2644ZM152.794 3.69161C151.791 3.356 151.397 2.63111 150.827 1.83909C150.213 0.988615 149.346 0.346132 148.346 0C148.818 1.50349 147.915 3.1278 146.391 3.57079C143.692 4.28523 141.346 5.9351 139.784 8.2167C138.223 10.4983 137.552 13.258 137.894 15.9879C138.237 18.7177 139.57 21.234 141.649 23.0734C143.727 24.9127 146.411 25.9515 149.206 25.9983C152.001 26.0452 154.719 25.0971 156.86 23.3284C159.001 21.5598 160.421 19.0898 160.857 16.373C161.294 13.6562 160.719 10.8755 159.238 8.54293C157.756 6.21031 155.469 4.48272 152.795 3.67818L152.794 3.69161ZM149.413 21.9899C148.029 21.9899 146.702 21.4489 145.723 20.486C144.745 19.523 144.195 18.217 144.195 16.8552C144.195 15.4934 144.745 14.1874 145.723 13.2244C146.702 12.2615 148.029 11.7205 149.413 11.7205C150.797 11.7205 152.125 12.2615 153.103 13.2244C154.082 14.1874 154.632 15.4934 154.632 16.8552C154.632 18.217 154.082 19.523 153.103 20.486C152.125 21.4489 150.797 21.9899 149.413 21.9899Z" fill="black" stroke="black" stroke-width="2" mask="url(#path-1-inside-1)"/>
</svg>

<svg width="161" height="26" fill="none" xmlns="http://www.w3.org/2000/svg"><mask id="a" fill="#fff"><path fill-rule="evenodd" clip-rule="evenodd" d="M7.158 19.945c-2.747 0-4.625-2.317-4.625-5.332 0-3.047 1.928-5.376 4.67-5.376 1.21 0 2.483.451 3.46 1.201l1.1-1.718c-1.274-1.094-3.059-1.698-4.75-1.698C3.024 7.022 0 10.318 0 14.67c0 4.269 2.93 7.521 6.925 7.521 1.706 0 3.602-.598 4.857-1.674l-1.119-1.762c-.93.707-2.25 1.19-3.506 1.19h.001zm18.514-8.132c0-2.656-1.797-4.59-4.887-4.59h-4.922v14.754h2.455v-5.531h2.04l2.955 5.536h2.909l-3.356-5.893c1.766-.68 2.807-2.265 2.807-4.276h-.001zm8.39-4.59l-4.98 14.748h2.563l1.157-3.705h5.296l1.17 3.705h2.696L36.916 7.226h-2.865l.011-.003zm21.02 1.826V7.233h-9.883v2.145h6.747l-6.991 10.817v1.788h10.232v-2.17h-7.122l7.04-10.76-.023-.004zm9.502 4.354l-3.41-6.171h-2.852l4.966 8.608v6.135h2.47v-6.148l5.063-8.604h-2.67L64.587 13.4l-.002.004zm17.15.77c1.077-.59 1.691-1.66 1.691-3.114 0-2.417-1.678-3.826-4.475-3.826h-4.638v14.746h5.416c2.742 0 4.57-1.732 4.57-4.175 0-1.868-1.091-3.199-2.592-3.63h.028zm11.038-6.94l-4.98 14.746h2.56l1.16-3.705h5.293l1.173 3.705h2.701L95.641 7.233H92.772zm19.76 6.94c1.081-.59 1.702-1.66 1.702-3.114 0-2.417-1.665-3.826-4.475-3.826h-4.639v14.746h5.43c2.742 0 4.584-1.732 4.584-4.175 0-1.868-1.091-3.199-2.578-3.63h-.024zm11.638-.77l-3.397-6.17h-2.865l4.966 8.609v6.138h2.476v-6.152l5.048-8.595h-2.661l-3.574 6.17h.007zm-16.593-4.008h1.883c1.378 0 2.315.554 2.315 1.91 0 1.405-.968 2.067-2.196 2.067h-2.006V9.395h.004zm2.613 10.41h-2.615v-4.363h2.438c1.564 0 2.592.698 2.592 2.188 0 1.49-1.028 2.175-2.418 2.175h.003zm-18.032-3.621L94.15 9.84l2.019 6.336h-4.011v.008zM76.777 9.395h1.883c1.378 0 2.314.554 2.314 1.91 0 1.405-.97 2.067-2.192 2.067h-2.005V9.395zm2.613 10.41h-2.606v-4.363h2.442c1.569 0 2.592.698 2.592 2.188 0 1.49-1.023 2.175-2.415 2.175h-.013zm-45.936-3.621l1.992-6.344 2.019 6.336h-4.011v.008zm-12.99-1.92h-2.141v-4.86h2.141c1.647 0 2.715.824 2.715 2.444 0 1.548-.968 2.414-2.715 2.414v.002zm132.33-10.572c-1.003-.336-1.397-1.06-1.967-1.853A5.125 5.125 0 00148.346 0c.472 1.503-.431 3.128-1.955 3.57a11.595 11.595 0 00-6.607 4.647 11.272 11.272 0 00-1.89 7.77 11.353 11.353 0 003.755 7.086 11.7 11.7 0 007.557 2.925 11.713 11.713 0 007.654-2.67 11.362 11.362 0 003.997-6.955 11.261 11.261 0 00-1.619-7.83 11.575 11.575 0 00-6.443-4.865l-.001.014zm-3.381 18.298a5.263 5.263 0 01-3.69-1.504 5.096 5.096 0 01-1.528-3.63c0-1.363.55-2.669 1.528-3.632a5.263 5.263 0 013.69-1.504c1.384 0 2.712.541 3.69 1.504a5.093 5.093 0 011.529 3.631c0 1.362-.55 2.668-1.529 3.631a5.261 5.261 0 01-3.69 1.504z"/></mask><path fill-rule="evenodd" clip-rule="evenodd" d="M7.158 19.945c-2.747 0-4.625-2.317-4.625-5.332 0-3.047 1.928-5.376 4.67-5.376 1.21 0 2.483.451 3.46 1.201l1.1-1.718c-1.274-1.094-3.059-1.698-4.75-1.698C3.024 7.022 0 10.318 0 14.67c0 4.269 2.93 7.521 6.925 7.521 1.706 0 3.602-.598 4.857-1.674l-1.119-1.762c-.93.707-2.25 1.19-3.506 1.19h.001zm18.514-8.132c0-2.656-1.797-4.59-4.887-4.59h-4.922v14.754h2.455v-5.531h2.04l2.955 5.536h2.909l-3.356-5.893c1.766-.68 2.807-2.265 2.807-4.276h-.001zm8.39-4.59l-4.98 14.748h2.563l1.157-3.705h5.296l1.17 3.705h2.696L36.916 7.226h-2.865l.011-.003zm21.02 1.826V7.233h-9.883v2.145h6.747l-6.991 10.817v1.788h10.232v-2.17h-7.122l7.04-10.76-.023-.004zm9.502 4.354l-3.41-6.171h-2.852l4.966 8.608v6.135h2.47v-6.148l5.063-8.604h-2.67L64.587 13.4l-.002.004zm17.15.77c1.077-.59 1.691-1.66 1.691-3.114 0-2.417-1.678-3.826-4.475-3.826h-4.638v14.746h5.416c2.742 0 4.57-1.732 4.57-4.175 0-1.868-1.091-3.199-2.592-3.63h.028zm11.038-6.94l-4.98 14.746h2.56l1.16-3.705h5.293l1.173 3.705h2.701L95.641 7.233H92.772zm19.76 6.94c1.081-.59 1.702-1.66 1.702-3.114 0-2.417-1.665-3.826-4.475-3.826h-4.639v14.746h5.43c2.742 0 4.584-1.732 4.584-4.175 0-1.868-1.091-3.199-2.578-3.63h-.024zm11.638-.77l-3.397-6.17h-2.865l4.966 8.609v6.138h2.476v-6.152l5.048-8.595h-2.661l-3.574 6.17h.007zm-16.593-4.008h1.883c1.378 0 2.315.554 2.315 1.91 0 1.405-.968 2.067-2.196 2.067h-2.006V9.395h.004zm2.613 10.41h-2.615v-4.363h2.438c1.564 0 2.592.698 2.592 2.188 0 1.49-1.028 2.175-2.418 2.175h.003zm-18.032-3.621L94.15 9.84l2.019 6.336h-4.011v.008zM76.777 9.395h1.883c1.378 0 2.314.554 2.314 1.91 0 1.405-.97 2.067-2.192 2.067h-2.005V9.395zm2.613 10.41h-2.606v-4.363h2.442c1.569 0 2.592.698 2.592 2.188 0 1.49-1.023 2.175-2.415 2.175h-.013zm-45.936-3.621l1.992-6.344 2.019 6.336h-4.011v.008zm-12.99-1.92h-2.141v-4.86h2.141c1.647 0 2.715.824 2.715 2.444 0 1.548-.968 2.414-2.715 2.414v.002zm132.33-10.572c-1.003-.336-1.397-1.06-1.967-1.853A5.125 5.125 0 00148.346 0c.472 1.503-.431 3.128-1.955 3.57a11.595 11.595 0 00-6.607 4.647 11.272 11.272 0 00-1.89 7.77 11.353 11.353 0 003.755 7.086 11.7 11.7 0 007.557 2.925 11.713 11.713 0 007.654-2.67 11.362 11.362 0 003.997-6.955 11.261 11.261 0 00-1.619-7.83 11.575 11.575 0 00-6.443-4.865l-.001.014zm-3.381 18.298a5.263 5.263 0 01-3.69-1.504 5.096 5.096 0 01-1.528-3.63c0-1.363.55-2.669 1.528-3.632a5.263 5.263 0 013.69-1.504c1.384 0 2.712.541 3.69 1.504a5.093 5.093 0 011.529 3.631c0 1.362-.55 2.668-1.529 3.631a5.261 5.261 0 01-3.69 1.504z" fill="#000" stroke="#000" stroke-width="2" mask="url(#a)"/></svg>
